!!!OTL-incipit: ICH WEISS EINN JAEGER
!!!ARE: Europa, Mitteleuropa, Deutschland, Schlesien
!!!SCT: Z0185
!!!TXL: @@DE
!!!YEM: Copyright 1995, estate of Helmut Schaffrath.
**kern	**text
*ICvox	*
*M6/8	*
*k[b-e-]	*
*B-:	*
!LO:TX:a:t=Schleſiſch.	!
{8f	Jch
=1	=1
4b-	weiß
8dd	ein'n
8cc	Jä-
8cc	-ger,
8b-	der
=2	=2
4a	bläſt
8b-	ſein
4.cc}	Horn
=3	=3
{8.b-	al-
16cc	-le-
8dd	-weil
(8.dd	bei
16cc)	.
8b-	der
=4	=4
[4.cc	Nacht!
4cc];}	.
{8dd	er
=5	=5
(8dd	bläſt
8ee-)	.
8ff	das
(8ff	Wild
8ee-)	.
8dd	wohl
=6	=6
(8cc	aus
8ee-)	.
8ee-	dem
4.ee-}	Korn,
=7	=7
{8dd	al-
8dd	-le-
8dd	-weil,
8dd	al-
8cc	-le-
8b-	-weil
=8	=8
(<8a	aus
8cc)	.
8cc	dem
4.cc}	Korn,
=9	=9
{8.b-	al-
16cc	-le-
8dd	-weil
(8dd	bei
8cc)	.
8b-	der
=10	=10
[4.b-	Nacht.
4b-;]}	.
==	==
!!!AGN: Soldaten -, Jaeger - Lied
!!!ONB: ESAC (Essen Associative Code) Database: ZUCCAL
!!!AMT: compound duple
!!!AIN: vox
!!!EED: Helmut Schaffrath
!!!EEV: 1.0
!!!RDF**kern: <= below
!!!GTL: III. Soldaten-, Jaeger-, Schiffer-, Fuhrmanns- und Handwerks-Lieder.
!!!URL-scan: https://www.digitale-sammlungen.de/de/view/bsb11160571?page=345
!!!ENC: Anna Maria Matuszewska
!!!EEV: 2025/01/28
*-	*-
